X:1
T:Ritorno
T:Velthur Tognoni 13-15 Agosto 2008 Durata: 1'40'' ca.
T:Ritorno
C:Velthur Tognoni
C:13-15 Agosto 2008
C:
C:Durata: 1'40'' ca.
%%score [ 1 2 ] { ( 3 5 ) | ( 4 6 ) }
L:1/8
Q:1/4=94
M:4/4
K:C
V:1 treble nm="I"
V:2 treble nm="II"
V:3 treble nm="Pianoforte"
V:5 treble 
V:4 bass 
V:6 bass 
V:1
 z | z (c/d/ !>!.c) z z (c/d/ !>!.c) z | z (.c2 .c2 .d2) z | z (_e/d/ !>!.c) z z (e/d/ !>!.c) z | %4
w: |Ha- ha- hah Ha- ha- hah|Hah, hah, hah|Ha- ha- hah Ha- ha- hah|
 z (.c2 .c2 ._B2) z | z (G/_A/ !>!._B) z z (B/A/ !>!.G) z | z (._B2 .G .B .G2) z | %7
w: Hah, hah, hah|Ha- ha- hah Ha- ha- hah|Hah, hah, hah, hah|
 z (._B2 .c2 .c2) z |[M:2/4] z2!mp! (_e2 |[M:4/4] .f2) .F2 .=d2 z (C | ._D2) z2 .G2 z2 | %11
w: ||||
[M:2/4] z4 |[M:4/4]"^Muto,\"n\"" F8 |"^5/q."[Q:3/8=80] z15 |"^Muto,\"gn\"" _A6 _D6 z2 z | %15
w: ||||
"^Muto,\"n\"" F6 _G6 F3- | F3 z (_B/A/!>!.B) z3/2 | z2 (._G2 ._d2 ._c2) z | %18
w: |* Ha- ha- hah|Hah, hah, hah|
 z3 z3"^Muto,\"n\"" z (_e2 | .f2) F2 =d2 z3 | %20
w: ||
 z3"^Muto,\"m\""[Q:1/8=100]"^sfumare come l'accordo di do+"!>)!!>(! C6- | %21
w: |
[M:2/2]!ppp![Q:1/2=45]"^il pianoforte in evidenza" C8- | C8- | C8- | C8- | C8- | C8- | C8- | C8- | %29
w: ||||||||
!<(! C8-!<)! |!>(! C8-!>)! | C8- | C8- | C8- | C8- | C8- | C8- | !fermata!C8 | %38
w: |||||||||
"^Immaginarsi     un do+""^VUOTA" x8 |] %39
w: |
V:2
 z | z (_A/G/ !>!.A) z z (A/G/ !>!.A) z | z (._A2 ._B2 .=B2) z | %3
w: |||
 z (c/G/ !>!._E) z z (c/G/ !>!.E) z | z (.F2 .G2 ._A2) z | z (_E/F/ !>!.G) z z (G/F/ !>!.E) z | %6
w: |||
 z (._B,2 ._E .C .E2) z | z (._A2 .G2 .F2) z |[M:2/4]!mf! (D4 |[M:4/4] _A4 G4) | z2 C4 z2 | %11
w: |Hah, hah, hah||||
[M:2/4] z4 |[M:4/4]"^Muto,\"n\"" F8- | F6 _G6 z3 | z6 (4:6:5C3/2_D3/2 _E3/2F3/4=G3/4 | C8- C _D6- | %16
w: |||||
"^5/e." D3 z (A/A/!>!.A)"^3/q." z3/2 | z (._E2 ._D2 ._A2) z2 | z3 z3/2"^Muto,\"n\"" z/ D4 | %19
w: |Hah, hah, hah||
 _A4 G4 z | z3"^sfumare come l'accordo di do+"!>)!!>(! C6- | %21
w: ||
[M:2/2]!ppp!"^il pianoforte in evidenza" C8- | C8- | C8- | C8- | C8- | C8- | C8- | C8- | %29
w: ||||||||
!<(! C8-!<)! |!>(! C8-!>)! | C8- | C8- | C8- | C8- | C8- | C8- | !fermata!C8 | %38
w: |||||||||
"^Immaginarsi       un do+""^VUOTA" x8 |] %39
w: |
V:3
 [FGB] | !>!.[F_Ac]2 z [FGB] !>!.[FAc]2 z [FGB] | %2
 !>!.[F_Ac] z/ [FGB]/ !>!.[FAc][FGB] !>!.[FAc]2 [FGB]2 | !>!.[_EGc]2 z [FGB] !>!.[EGc]2 z [FGB] | %4
 !>!.[_EGc] z/ [FGB]/ !>!.[EGc][FGB] !>!.[EGc]2 [_A_Bd]2 | %5
 !>!.[G_B_e]2 z [_ABd] !>!.[GBe]2 z [ABd] | %6
 !>!.[G_B_e] z/ [_ABd]/ !>!.[GBe][ABd] !>!.[GBe]2 [FG=B]2 | %7
 !>!.[_EGc]2 z [FGd] !>!.[EG=c]2 z [FGB] |[M:2/4] !>!.[_EGc] z/ [FGd]/ !>!.[EG=c][FGB] | %9
[M:4/4] [F_A_df]2 [_EAc_e]2 [FGB=d]2 [EGc][CE_G] | [B,_E=G]2 [A,B,E]2 [E,G,C]2 z [FGB] | %11
[M:2/4] !>!.[F_Ac] z/ [FGd]/ !>!.[_EGc][FGB] |[M:4/4] [F_A_df]2 [_G_Bd_g]2 [Acf_a]2 [df_b_d']2 | %13
"^m.s.""^m.d." [cegc'] x/[I:staff +1] C,/ G,/C/[I:staff -1] x3/2 c/g/c'/ g/c/ x2 _c/E/C/ x3/2[I:staff +1] _B,/G,/C,/[I:staff -1] x3/2 | %14
 x3/2[I:staff +1] G,/ C/G/[I:staff -1] x3/2 g/c'/g'/ c'/f/ x2 c/F/C/ x3/2[I:staff +1] C/F,/C,/[I:staff -1] x3/2 | %15
 x6 _g/_e/_B/F/_B,/F/_G/B/_d/e/B/_E/=C/E/F/=E/C/B,/ |"^5/e.""^3/q." z15/2 | z9 | z9 | %19
 (f/_d/_A/)(_e/ c/A/)(=d/=B/ G/)(c/G/_E/) (_G/E/C/)(=G/E/B,/) | %20
 (_E/B,/A,/)(C/ G,/=E,/)"^Muto,\"m\""!f! z/ [CE_G][B,E=G][A,B,E]/ [=E,G,C] z/!p!!>)!!>(! !fermata![_df]3/2- | %21
[M:2/2] ([d-f]8 | [d_g]8 | [_A_a]8 | z4 G4 | f8 | _g8 | !breath!f8) | ([F_B-_d]8 | %29
!<(! [_EB_e]8!<)! |!>(! [Ff]8!>)! | !fermata!_B8) | (_d8 | _e8 | _d8 | _e8 | x8!ppp! | %37
 !fermata!=d8) |"^Immaginarsi    un do+" z8 |] %39
V:4
 D | !>!.F,2 z D !>!.F,2 z D | !>!.F, z/ D/ !>!.F,D !>!.F,2 G,2 | !>!.C2 z G, !>!.C2 z G, | %4
 !>!.C z/ G,/ !>!.CG, !>!.C2 _B,2 | !>!._E,2 z _B, !>!.E,2 z B, | %6
 !>!._E, z/ _B,/ !>!.E,B, !>!.E,2 G,2 | C,2 z G, !>!.C2 z G, |[M:2/4] !>!.C, z/ G,/ !>!.CG, | %9
[M:4/4] [_D,_D]2 [_A,,_A,]2 [=D,=D]2 [G,,G,][A,_A] | [G,,G,]2 [F,,,F,,]2 [C,,C,]2 z D | %11
[M:2/4] !>!.F, z/ G,/ !>!.CG, |[M:4/4] [_D,_D]2 [_B,,_B,]2 [F,,F,]2 [_B,,,B,,]2 | %13
!ped!"^m.s.""^5/q.""^m.d."!ped! C,,/G,,/C,/ x3/2[I:staff -1] C/G/ c/[I:staff +1] x5/2[I:staff -1] G/_d/_A/_D/[I:staff +1] x3/2[I:staff -1] =D/_A,/[I:staff +1]=D,/ x3/2 E,/_B,,/E,,/!ped-up! | %14
!ped! F,,/C,/F,/ x3/2[I:staff -1] F/c/ f/[I:staff +1] x5/2[I:staff -1] c/_d/_A/_D/[I:staff +1] x3/2[I:staff -1] =D/_A,/[I:staff +1]=D,/ x3/2 _E,/_B,,/G,,/!ped-up! | %15
!ped! _A,,/_E,/_A,/[I:staff -1]_B,/ _E/_B/_G,/_D/ _G/_A/_d/_a/[I:staff +1] _E,,/_B,,/_D,/F,/B,/F,/E,/B,,/F,,/_C,,/_G,,/=C,/=A,/F,/D,/C,/=E,/=G,/!ped-up! | %16
 F,,/C,/F,/[I:staff -1]G,/ C/G/_E/_B/ _e/f/_b/f'/[I:staff +1] _D,,/_A,,/_D,/ | %17
 _E,/_A,/_E/[I:staff -1]_C/ _G/_c/_D/_A/ _d/E/A/_e/ C/G/c/[I:staff +1]_D,/A,/D/ | %18
 _E,/_A,/_E/[I:staff -1]_C/ _G/_c/_D/_A/ _d/E/A/_e/ c/_g/_c'/D/A/d/ | %19
[I:staff +1] .F_D/._E"^allargando"C/.F D,/.G,,/!>!G, ._A_A,/.G,G,,/ | %20
 .F,,F,/.=E,/ !>!C,,!f!!>!_A,, !>!F,,!>!G,,!ped! !>!C, z/!ped-up![K:treble]!p!"^sfumare col pedale" !fermata![_D_A]3/2- | %21
[M:2/2]!mp!"^legatissimo" [DA]8 | [_B,_G]8 | [F,C]8 | [_B,F-]8 | [_A,F]8 | [_B,_G]8 | [_D_A]8 | %28
 _B,8 | G,4 _A,4 | [_D,_A,]8 | !breath![_G,_D]8 | [F,_D]8 | _D6 _E2 | [F,_D]8 | _D4 _E4 | [_DF-]8 | %37
 F8 |"^VUOTA" z8 |] %39
V:5
 x | x8 | x8 | x8 | x8 | x8 | x8 | x8 |[M:2/4] x4 |[M:4/4] x8 | x8 |[M:2/4] x4 |[M:4/4] x8 | x15 | %14
 x15 | x15 | x15/2 | x9 | x9 | x9 | x9 |[M:2/2] x8 | x8 | x8 | _d8 | c8- | c4 _d4- | d8 | x8 | x8 | %30
 x8 | x8 | _A8- | A4 _B4 | =A4 _A4- | A6 _B2 | !fermata!_A8- | A8 | x8 |] %39
V:6
 x | x8 | x8 | x8 | x8 | x8 | x8 | x8 |[M:2/4] x4 |[M:4/4] x8 | x8 |[M:2/4] x4 |[M:4/4] x8 | x15 | %14
 x15 | x15 | x15/2 | x9 | x9 | x9 | x15/2[K:treble] x3/2 |[M:2/2] x8 | x8 | x8 | x8 | x8 | x8 | %27
 x8 | x8 | x8 | x8 | x8 | x8 | _G,8 | x8 | _G,8 | x8 | x8 | x8 |] %39

